src/containers/TrustSection/assets/oreo 1.svg

<svg width="113" height="40" viewBox="0 0 113 40" xmlns="http://www.w3.org/2000/svg">
    <path d="M81.8108 22.6002L81.8182 22.5992C82.6179 22.5023 83.4063 22.423 84.1918 22.344C85.7005 22.1923 87.1981 22.0417 88.7424 21.7694C88.799 21.7581 88.8556 21.7471 88.9121 21.7361C89.2233 21.6755 89.5311 21.6156 89.8239 21.5115C90.1062 21.4111 90.3304 21.2836 90.4902 21.113C90.502 20.8029 90.5865 20.5241 90.7695 20.3018C90.9917 20.0319 91.2939 19.9241 91.5571 19.8874C92.0142 19.8236 92.5299 19.9548 92.7965 20.0226C92.8164 20.0277 92.8349 20.0324 92.8519 20.0366C93.2885 20.1458 93.7386 20.2901 94.164 20.429C94.2103 20.4441 94.2563 20.4592 94.3019 20.4741C94.6787 20.5974 95.0319 20.713 95.3578 20.8022C97.5331 21.3111 99.819 21.478 101.847 21.2424C103.886 21.0055 105.609 20.3684 106.718 19.3231L106.835 19.2131L106.993 19.1915C108.246 19.0207 109.115 17.9923 109.584 16.5019C110.05 15.0207 110.067 13.2201 109.707 11.8108L109.706 11.8071C108.812 8.19745 105.984 5.24236 102.245 3.54206C98.5098 1.84334 93.9083 1.42041 89.5462 2.84062L89.5376 2.84345L89.5288 2.84595C89.3231 2.90473 89.0818 3.00457 88.8004 3.13239C88.6942 3.18063 88.5764 3.23565 88.4539 3.29288C88.2746 3.37667 88.0851 3.46519 87.9069 3.54411C87.3 3.81289 86.5728 4.09001 85.882 4.04683L85.8775 4.04655C85.2484 4.00159 84.6603 3.65001 84.1873 3.35441C84.127 3.31671 84.0682 3.27968 84.0107 3.24348C83.5707 2.96648 83.2086 2.73854 82.8541 2.63726C81.7263 2.31502 80.2885 2.30793 78.6758 2.41197C78.0269 2.45383 77.3372 2.51512 76.636 2.57742C75.6505 2.665 74.6423 2.75459 73.6931 2.79505M81.8108 22.6002L73.6696 2.2956M81.8108 22.6002C80.6929 22.7526 79.5748 22.9384 78.4601 23.1236C76.4627 23.4554 74.4765 23.7853 72.5227 23.9185L72.5086 23.9195L72.4947 23.9212C72.3034 23.9451 72.11 23.9261 71.8555 23.9011C71.8305 23.8987 71.805 23.8961 71.7787 23.8936C71.5167 23.8682 71.1706 23.8383 70.8274 23.9343C70.5012 24.0174 70.1865 24.1898 69.9316 24.3294C69.912 24.3401 69.8927 24.3507 69.8737 24.361C69.5799 24.5213 69.3432 24.6425 69.1091 24.6945C68.2422 24.8871 67.1421 25.0101 65.966 25.1415C65.4847 25.1953 64.9907 25.2505 64.4947 25.3125L64.4845 25.3138L64.4745 25.3155C64.0487 25.3864 63.6201 25.4704 63.2031 25.553L63.109 25.5716C62.7227 25.6481 62.3476 25.7224 61.9841 25.7856C61.1895 25.9238 60.5016 25.999 59.9511 25.9378C59.7275 25.913 59.4875 25.823 59.213 25.6763C58.9909 25.5577 58.7729 25.4173 58.5343 25.2637C58.4735 25.2244 58.4112 25.1844 58.3473 25.1436C57.7643 24.7719 57.0143 24.3167 56.1565 24.407L56.1565 24.4069L56.1468 24.4082C55.7353 24.4596 55.4013 24.6633 55.1323 24.9021C54.8667 25.138 54.6383 25.4317 54.439 25.7063C54.3637 25.81 54.2941 25.9087 54.227 26.0037C54.105 26.1767 53.9917 26.3373 53.8692 26.4929C53.6854 26.7265 53.5263 26.8872 53.3776 26.9799C53.037 27.1769 52.4852 27.3374 51.7769 27.4843C51.33 27.5769 50.8576 27.6576 50.3716 27.7405C50.0884 27.7888 49.8007 27.8379 49.5107 27.8906L49.5107 27.8905L49.5021 27.8923C49.0162 27.9894 48.5346 28.1086 48.0677 28.2241C48.0203 28.2358 47.973 28.2475 47.926 28.2591C47.4103 28.3864 46.9118 28.5066 46.4169 28.5946C45.4295 28.7704 44.4909 28.8113 43.5524 28.5297L43.5498 28.529C43.3728 28.4769 43.1373 28.3088 42.8003 28.0202C42.7406 27.9691 42.678 27.9144 42.613 27.8577C42.35 27.6282 42.0479 27.3646 41.7446 27.1649C41.3656 26.9155 40.8745 26.6882 40.328 26.7965C39.7809 26.9049 39.3347 27.3164 38.9582 27.9638C37.3524 30.021 34.1802 32.1244 31.3635 33.4984L31.3634 33.4983L31.3575 33.5014C27.566 35.4142 22.1306 36.8214 16.9931 36.8043C11.8412 36.7871 7.12545 35.3427 4.58484 31.7149C3.50435 30.1421 2.63479 27.3356 2.46449 24.4574C2.29346 21.5669 2.83628 18.7663 4.39884 17.1081L4.48836 17.0131L4.52001 16.8865C4.9703 15.0853 6.14935 13.6432 7.72757 12.4511C9.30852 11.257 11.2592 10.3376 13.1916 9.5784L13.1916 9.57842L13.1956 9.57682C18.1286 7.58993 23.9494 6.70089 29.8328 7.65867L29.8328 7.65871L29.839 7.65963C30.4617 7.75304 31.0737 7.93605 31.7179 8.12871C31.7497 8.13822 31.7816 8.14775 31.8136 8.1573C32.4783 8.35586 33.1818 8.56121 33.8956 8.63635L33.904 8.63722L33.9124 8.63782C34.1944 8.65797 34.4684 8.64235 34.7135 8.62349C34.7757 8.6187 34.8353 8.61381 34.8927 8.60908C35.0724 8.5943 35.2322 8.58115 35.3922 8.57814C35.7947 8.57054 36.0776 8.63234 36.3246 8.85689L36.9018 9.3816L37.1376 8.63804C37.3418 7.994 37.6316 7.53913 37.9842 7.20112C38.339 6.86093 38.7809 6.61673 39.321 6.42869C39.8652 6.23925 40.4929 6.11208 41.2108 5.99692C41.5063 5.94952 41.835 5.90171 42.1791 5.85168C42.6269 5.78655 43.1006 5.71766 43.5606 5.64102L43.5657 5.64011C44.1625 5.53424 44.7821 5.42091 45.4185 5.30453C49.4185 4.57298 54.0792 3.7206 57.8627 3.83883L57.8705 3.83908H57.8784C58.5963 3.83908 59.3518 3.97446 60.1557 4.11853L60.2511 4.13562C61.0687 4.28192 61.9406 4.43284 62.7706 4.39512L62.7706 4.39528L62.7835 4.39436C63.3689 4.35255 63.9104 4.12518 64.3662 3.91482C64.4608 3.87115 64.551 3.82869 64.6375 3.78796C64.9962 3.61907 65.2917 3.47992 65.5791 3.40758M81.8108 22.6002L65.4611 2.9217M73.6931 2.79505C73.6923 2.79508 73.6916 2.79511 73.6909 2.79515L73.6696 2.2956M73.6931 2.79505C73.6938 2.79502 73.6945 2.79498 73.6952 2.79494L73.6696 2.2956M73.6931 2.79505C73.0094 2.83008 72.3007 2.85194 71.5903 2.87363L71.556 2.87468C70.8545 2.8961 70.1514 2.91756 69.4594 2.95153C68.0506 3.02068 66.7151 3.14069 65.5791 3.40758M73.6696 2.2956C72.9798 2.33097 72.263 2.35286 71.5387 2.37497C69.4142 2.43983 67.2249 2.50668 65.4611 2.9217M65.5791 3.40758C65.5802 3.40731 65.5813 3.40704 65.5823 3.40677L65.4611 2.9217M65.5791 3.40758C65.5779 3.40786 65.5768 3.40813 65.5756 3.40841L65.4611 2.9217"
          id="oreo1" stroke="white"/>
    <path d="M94.4 3.33907C99.1304 3.19994 103.513 4.93908 105.878 7.65213C107.339 9.39126 108.87 11.8956 107.617 14.8869C105.183 20.8695 93.8434 19.1304 89.8782 14.6782C88.3478 12.9391 86.4696 9.59996 87.5131 6.74779C88.2783 4.59127 90.9217 3.40864 94.4 3.33907ZM93.7739 8.7652C93.3566 10.9217 95.2347 12.8 96.4869 13.6348C98.4347 14.8869 102.052 14.8869 102.47 12.5217C103.026 9.39126 98.9218 6.19127 95.8609 6.88693C94.8174 7.09562 93.9131 7.72172 93.7739 8.7652ZM85.0087 7.02607C83.5478 7.1652 81.9478 7.23476 80.3478 7.37389C78.7478 7.51302 77.1479 7.37388 75.8957 7.9304C76.0348 8.76519 76.313 9.46083 76.8696 9.87822C79.4435 9.87822 81.6695 9.25214 84.313 9.5304C85.0087 10.3652 85.426 11.5478 85.7043 12.8C83.826 13.7043 80.2087 13.0087 78.1218 13.9826C78.1913 14.8869 78.4696 15.513 78.9565 16.0695C82.1565 16.0695 85.0782 15.1652 88.1391 15.4434C88.9739 16.0695 89.4608 17.7391 89.5304 18.7826C88.626 19.4782 87.0261 19.3391 85.4261 19.5478C81.2522 20.0348 76.3826 20.9391 72.1391 21.1478C71.0956 20.1739 70.9565 18.5739 70.5391 17.2521C69.2869 13.2869 67.687 9.04346 66.4348 4.93911C68.4522 4.17389 71.0262 4.313 73.4609 4.17387C76.8001 3.96517 80.2783 3.68691 83.5479 3.82604C84.4522 4.38256 85.0087 5.84346 85.0087 7.02607ZM62.9565 14.1217C64.6957 15.9304 66.5738 17.4608 68.4521 19.1304C69.0782 19.6173 69.9131 20.1739 69.9827 21.0782C68.8001 21.7739 67.1304 21.7739 65.5304 22.0521C63.9304 22.3304 62.1217 22.9565 61.0087 22.6782C60.1739 22.5391 59.3392 21.3565 58.6435 20.5913C56.487 18.2956 54.0522 15.9304 52.2435 13.6348C54.1218 13.0087 57.2521 13.3565 57.5304 11.4782C57.6695 10.5043 56.9043 9.39127 55.7913 9.18257C54.4 8.97387 50.6434 9.53038 50.3651 10.2956C50.0869 11.1304 50.9914 12.6608 51.2001 13.6348C52.174 17.2522 52.9391 20.0347 53.5652 23.513C53.3565 24.3478 52.2435 24.2782 51.4783 24.3478C49.2522 24.6956 46.5391 25.4608 44.1043 25.3217C43.2695 22.5391 42.5044 19.5478 41.8088 16.5565C41.1131 13.5652 40.4174 10.5043 40 7.58258C40.7652 6.7478 42.3651 6.81734 43.7565 6.60865C47.6521 6.12169 52.8 5.35647 56.5566 5.07821C61.4957 4.73038 65.1131 5.77389 65.9479 9.11302C66.7131 11.7565 64.8348 13.3565 62.9565 14.1217Z"
          id="oreo2" fill="white"/>
    <path d="M25.4609 9.04341C30.4695 8.90428 35.0607 10.226 37.4955 12.7999C38.6085 13.9826 39.9304 16.3478 40.0695 19.2695C40.2087 21.4956 39.5826 23.6521 38.6782 25.113C35.4782 30.3304 26.713 33.5999 19.2 33.8782C13.0782 34.1565 7.79125 32.4173 5.77386 28.2434C3.40864 23.3043 5.84336 17.6695 8.48684 15.026C10.226 13.2869 12.8695 11.8956 15.7217 10.7825C18.5739 9.80863 21.913 9.18254 25.4609 9.04341ZM16.4174 18.1565C15.7217 19.2 15.0259 21.2173 15.5825 23.1651C17.3912 29.426 28.9391 27.5478 29.7739 21.2173C30.3304 17.0434 26.9911 14.4695 22.539 14.9565C19.9651 15.1651 17.5304 16.4173 16.4174 18.1565Z"
          id="oreo3" fill="white"/>
</svg>

<svg width="113" height="40" viewBox="0 0 113 40" xmlns="http://www.w3.org/2000/svg">
    <path d="M81.81 22.6h.008c.8-.098 1.588-.177 2.374-.256 1.509-.152 3.006-.302 4.55-.575.057-.01.114-.022.17-.033.311-.06.62-.12.912-.224.282-.1.506-.228.666-.399.012-.31.097-.589.28-.811.222-.27.524-.378.787-.415.457-.063.973.068 1.24.136l.055.014c.436.109.887.253 1.312.392l.138.045c.377.123.73.239 1.056.328 2.175.51 4.461.676 6.489.44 2.039-.236 3.762-.874 4.871-1.919l.117-.11.158-.021c1.253-.171 2.122-1.2 2.591-2.69.466-1.481.483-3.282.123-4.691l-.001-.004c-.894-3.61-3.722-6.565-7.461-8.265a17.702 17.702 0 00-12.699-.701l-.008.002-.01.003a5.547 5.547 0 00-.728.286l-.346.16c-.18.085-.369.173-.547.252-.607.269-1.334.546-2.025.503h-.005c-.629-.045-1.217-.397-1.69-.693l-.176-.11c-.44-.278-.802-.505-1.157-.607-1.128-.322-2.566-.33-4.178-.225-.65.042-1.339.103-2.04.165-.986.088-1.994.178-2.943.218M81.811 22.6L73.67 2.296M81.81 22.6c-1.117.153-2.235.338-3.35.524-1.997.331-3.983.661-5.937.795h-.014l-.014.002c-.192.024-.385.005-.64-.02l-.076-.007c-.262-.026-.608-.056-.952.04-.326.083-.64.256-.895.395l-.058.032c-.294.16-.53.281-.765.334-.867.192-1.967.315-3.143.447-.481.053-.975.108-1.471.17l-.01.002-.01.002c-.426.07-.855.154-1.272.237l-.094.019c-.386.076-.761.15-1.125.214-.794.138-1.482.213-2.033.152-.224-.025-.464-.115-.738-.262-.222-.118-.44-.259-.679-.412-.06-.04-.123-.08-.187-.12-.583-.372-1.333-.827-2.19-.737h0l-.01.001c-.412.052-.746.255-1.015.494-.265.236-.494.53-.693.804l-.212.298c-.122.173-.235.333-.358.489-.184.234-.343.394-.491.487-.341.197-.893.357-1.601.504-.447.093-.92.174-1.405.256-.284.049-.571.098-.861.15h0l-.009.002c-.486.097-.967.217-1.434.332l-.142.035c-.516.127-1.014.248-1.51.336-.986.175-1.925.216-2.864-.065l-.002-.001c-.177-.052-.413-.22-.75-.509-.06-.05-.122-.106-.187-.162a8.503 8.503 0 00-.868-.693c-.38-.25-.87-.477-1.417-.368-.547.108-.993.52-1.37 1.167-1.606 2.057-4.778 4.16-7.595 5.534h0l-.005.003c-3.792 1.913-9.227 3.32-14.365 3.303-5.152-.017-9.868-1.461-12.408-5.09-1.08-1.572-1.95-4.378-2.12-7.257-.172-2.89.371-5.69 1.934-7.349l.09-.095.031-.127c.45-1.8 1.63-3.243 3.208-4.435 1.58-1.194 3.531-2.113 5.464-2.873h0l.004-.001C18.129 7.59 23.949 6.7 29.833 7.659h.006c.623.094 1.235.277 1.879.47l.096.028c.664.199 1.368.404 2.082.48h.016c.282.021.556.005.802-.014l.179-.014c.18-.015.34-.028.5-.03.402-.008.685.053.932.278l.577.525.236-.744c.204-.644.494-1.099.846-1.437.355-.34.797-.584 1.337-.772.544-.19 1.172-.317 1.89-.432.295-.047.624-.095.968-.145.448-.065.922-.134 1.382-.211h.005c.596-.107 1.216-.22 1.852-.336 4-.732 8.661-1.584 12.445-1.466h.015c.718 0 1.474.135 2.278.28l.095.017c.818.146 1.69.297 2.52.26h0l.012-.002c.586-.041 1.127-.269 1.583-.48l.272-.126c.358-.169.654-.308.941-.38M81.811 22.6L65.46 2.922m8.232-.127h-.002l-.021-.5m.023.5h.002l-.025-.5m.023.5c-.684.035-1.392.057-2.103.079h-.034c-.701.022-1.405.044-2.097.078-1.408.069-2.744.189-3.88.456m8.09-1.112c-.69.035-1.406.057-2.13.079-2.125.065-4.314.132-6.078.547m.118.486l.003-.001-.12-.485m.117.486h-.003l-.115-.486"
          id="path1" stroke="white" />
    <path d="M94.4 3.34c4.73-.14 9.113 1.6 11.478 4.312 1.461 1.74 2.992 4.244 1.739 7.235-2.434 5.982-13.774 4.243-17.739-.209-1.53-1.739-3.408-5.078-2.365-7.93.765-2.157 3.409-3.34 6.887-3.409zm-.626 5.425c-.417 2.157 1.46 4.035 2.713 4.87 1.948 1.252 5.565 1.252 5.983-1.113.556-3.13-3.548-6.33-6.61-5.635-1.043.209-1.947.835-2.086 1.878zm-8.765-1.739c-1.461.14-3.061.209-4.661.348-1.6.139-3.2 0-4.452.556.139.835.417 1.53.974 1.948 2.573 0 4.8-.626 7.443-.348.696.835 1.113 2.018 1.391 3.27-1.878.904-5.495.209-7.582 1.183.07.904.348 1.53.835 2.087 3.2 0 6.121-.905 9.182-.627.835.627 1.322 2.296 1.391 3.34-.904.695-2.504.556-4.104.765-4.174.487-9.043 1.391-13.287 1.6-1.043-.974-1.182-2.574-1.6-3.896-1.252-3.965-2.852-8.209-4.104-12.313 2.017-.765 4.591-.626 7.026-.765 3.34-.209 6.817-.487 10.087-.348.904.557 1.46 2.017 1.46 3.2zm-22.053 7.096c1.74 1.808 3.618 3.339 5.496 5.008.626.487 1.461 1.044 1.53 1.948-1.182.696-2.852.696-4.452.974s-3.408.904-4.521.626c-.835-.139-1.67-1.322-2.365-2.087-2.157-2.295-4.592-4.66-6.4-6.956 1.878-.626 5.008-.278 5.286-2.157.14-.974-.626-2.087-1.739-2.295-1.391-.21-5.148.347-5.426 1.113-.278.834.626 2.365.835 3.339.974 3.617 1.74 6.4 2.365 9.878-.209.835-1.322.765-2.087.835-2.226.348-4.939 1.113-7.374.974-.834-2.783-1.6-5.774-2.295-8.765-.696-2.992-1.392-6.053-1.809-8.974.765-.835 2.365-.766 3.757-.974 3.895-.487 9.043-1.253 12.8-1.53 4.939-.349 8.556.695 9.39 4.034.766 2.644-1.112 4.244-2.99 5.009zM25.46 9.043c5.01-.139 9.6 1.183 12.035 3.757 1.114 1.183 2.435 3.548 2.575 6.47.139 2.226-.487 4.382-1.392 5.843-3.2 5.217-11.965 8.487-19.478 8.765-6.122.279-11.409-1.46-13.426-5.635-2.365-4.939.07-10.573 2.713-13.217 1.739-1.74 4.383-3.13 7.235-4.243 2.852-.974 6.191-1.6 9.739-1.74zm-9.043 9.114c-.695 1.043-1.391 3.06-.835 5.008 1.81 6.261 13.357 4.383 14.192-1.948.556-4.174-2.783-6.747-7.235-6.26-2.574.208-5.009 1.46-6.122 3.2z"
          id="path2" fill="white" />
</svg>
